5979bc998ce136000121cb9d_art_what.makes_fuel.rocket.svg

<svg xmlns="http://www.w3.org/2000/svg" width="111" height="449" viewBox="0 0 111 449" xmlns:xlink="http://www.w3.org/1999/xlink">
  <defs>
    <rect id="a" width="110" height="35.5" y="407"/>
    <path id="b" d="M37.4372782,9.67827284 C38.8721379,7.64681885 43.6389973,6 48.1066803,6 L49.6066494,6 C54.0729041,6 58.8448996,7.65210491 60.276055,9.67827284 L70.51715,23.3944017 C73.1435219,26.2141458 72.575632,28.5 69.0952425,28.5 L28.6181047,28.5 C25.1408287,28.5 24.5653955,26.2187588 27.1961941,23.3944017 L37.4372782,9.67827284 Z"/>
  </defs>
  <g fill="none" fill-rule="evenodd" transform="matrix(0 -1 1 0 0 449.5)">
    <g opacity=".9" transform="rotate(90 221.5 221.5)">
      <path fill="#FFFFFF" stroke="#FFFFFF" stroke-width="14" d="M97.1960784,127.933515 L97.1960784,123.964844 L103.20915,123.964844 L103.20915,428.564453 L97.1960784,428.564453 L97.1960784,428.191571 L52.0980392,428.191571 L52.0980392,127.933515 L97.1960784,127.933515 Z M19.0261438,127.933515 L52.0980392,127.933515 L52.0980392,428.191571 L19.0261438,428.191571 L19.0261438,127.933515 Z M13.0130719,127.933515 L19.0261438,127.933515 L19.0261438,428.191571 L13.0130719,428.191571 L13.0130719,127.933515 Z M13.0130719,123.964844 L13.0130719,428.564453 L7,428.564453 L7,123.964844 L13.0130719,123.964844 Z"/>
      <use fill="#FFFFFF" xlink:href="#a"/>
      <rect width="97" height="22.5" x="6.5" y="413.5" stroke="#FFFFFF" stroke-width="13"/>
      <path fill="#FFFFFF" stroke="#FFFFFF" stroke-width="13" d="M33.6154135,18.4299284 C45.5152487,-5.30595047 65.6467565,-5.73760072 76.9801018,18.2884244 C76.9801018,18.2884244 103.20915,51.5884733 103.20915,131.5 C103.20915,131.5 3.14996132,131.5 7.11479202,131.5 C7.11479202,53.8043869 33.6154135,18.4299284 33.6154135,18.4299284 Z"/>
    </g>
    <g transform="rotate(90 218 225)">
      <rect width="46.601" height="300.258" x="45.098" y="135.934" fill="#F27E2D"/>
      <rect width="33.072" height="300.258" x="12.026" y="135.934" fill="#FFBD8F"/>
      <rect width="6.013" height="300.258" x="6.013" y="135.934" fill="#F6E5D3"/>
      <rect width="84.183" height="6" x="6.013" y="93" fill="#4E5F60"/>
      <rect width="90.196" height="6" x="1.503" y="205.5" fill="#4E5F60"/>
      <rect width="90.196" height="6" x="1.503" y="430.5" fill="#4E5F60"/>
      <path fill="#F6E5D3" d="M26.6154135,26.4299284 C38.5152487,2.69404953 58.6467565,2.26239928 69.9801018,26.2884244 C69.9801018,26.2884244 96.2091503,59.5884733 96.2091503,139.5 C96.2091503,139.5 -3.85003868,139.5 0.114792024,139.5 C0.114792024,61.8043869 26.6154135,26.4299284 26.6154135,26.4299284 Z"/>
      <path fill="#FFBD8F" d="M37.9361938,26.2885614 C47.8799442,6.37287835 62.4037673,7.09504105 69.6335376,28.1727101 C69.6335376,28.1727101 88.8043811,69.0043945 92.6946742,139.5 C92.6946742,139.5 8.17610511,139.5 12.1409358,139.5 C12.1409358,61.8043869 37.9361938,26.2885614 37.9361938,26.2885614 Z"/>
      <path fill="#F27E2D" d="M45.0980392,22.4746614 C45.0980392,8.43538138 52.3684082,5.81116656 60.3337956,17.3579873 C60.3337956,17.3579873 93.3186524,46.2065955 95.9370224,141.096972 L45.0980392,141.096972 L45.0980392,22.4746614 Z"/>
      <path stroke="#4E5F60" stroke-width="6" d="M93.1968983,129 C92.8313527,129 92.4088023,129 91.9174759,129 C87.242689,129 87.242689,129 80.6368525,129 C65.1265052,129 65.1265052,129 46.6751597,129 C28.3477151,129 28.3477151,129 13.4568726,129 C7.26488946,129 7.25373434,129 3.1278856,129 C3.41094716,96.6768229 8.26804858,69.5266381 16.1904168,47.337871 C19.0348832,39.3711622 22.075019,32.6390662 25.1051168,27.1137008 C26.1566491,25.1962378 27.1284701,23.570242 27.9948557,22.2323077 C28.2929058,21.7720376 28.5549456,21.3825152 28.7777574,21.063319 C28.904041,20.8824074 28.9846608,20.7709795 29.0163977,20.7286153 L29.1771152,20.5140809 L29.297252,20.2744514 C40.1550349,-1.38290893 57.0759921,-1.53564749 67.2668207,20.0683095 L67.4123312,20.3767831 L67.6233738,20.64472 C67.6517738,20.6807763 67.7286495,20.7821543 67.8508192,20.9496664 C68.0685413,21.2481943 68.3251914,21.6144787 68.6175894,22.0493348 C69.4700116,23.3170628 70.4272297,24.8688347 71.4638094,26.7112168 C74.4554024,32.0283746 77.4587422,38.5864395 80.2702104,46.4386642 C88.1151851,68.3491042 92.9242247,95.7379682 93.1968983,129 Z M2.01518608e-05,129.114772 L0.114792024,129 C0.0345645489,129 0.0345645489,129 0.00435153665,129 C0.00230586138,129 0.00230586138,129 0.00102797725,129 C0.000532710916,129 0.000532710916,129 0.000228822167,129 C0.000112725452,129 0.000112725452,129 4.44018568e-05,129 L3.22963149e-06,129 C8.90819957e-06,129.038505 1.4550325e-05,129.076764 2.01572793e-05,129.114777 L2.01518608e-05,129.114772 Z"/>
      <use fill="#4E5F60" xlink:href="#b"/>
      <path stroke="#4E5F60" stroke-width="7.26" d="M67.0887735,24.87 L30.6246496,24.87 L40.3459551,11.850023 L40.4022579,11.7725019 C41.0179893,10.9007581 44.7016357,9.63 48.1066803,9.63 L49.6066494,9.63 C53.006744,9.63 56.6977072,10.904122 57.3110955,11.7725305 L67.0887735,24.87 Z"/>
      <polyline fill="#4E5F60" points="6.013 131.965 6.013 436.564 0 436.564 0 131.965"/>
      <polyline fill="#4E5F60" points="96.209 131.965 96.209 436.564 90.196 436.564 90.196 131.965"/>
    </g>
  </g>
</svg>

<svg xmlns="http://www.w3.org/2000/svg" width="111" height="449" xmlns:xlink="http://www.w3.org/1999/xlink"><defs><path id="a" d="M0 407h110v35.5H0z"/><path id="b" d="M37.437 9.678C38.872 7.647 43.64 6 48.107 6h1.5c4.466 0 9.238 1.652 10.67 3.678l10.24 13.716c2.627 2.82 2.059 5.106-1.422 5.106H28.618c-3.477 0-4.053-2.281-1.422-5.106L37.437 9.678z"/></defs><g fill="none" fill-rule="evenodd"><g opacity=".9" transform="translate(0 6.5)"><path fill="#FFF" stroke="#FFF" stroke-width="14" d="M97.196 127.934v-3.97h6.013v304.6h-6.013v-.372H52.098V127.934h45.098zm-78.17 0h33.072v300.258H19.026V127.934zm-6.013 0h6.013v300.258h-6.013V127.934zm0-3.97v304.6H7v-304.6h6.013z"/><use fill="#FFF" xlink:href="#a"/><path stroke="#FFF" stroke-width="13" d="M6.5 413.5h97V436h-97z"/><path fill="#FFF" stroke="#FFF" stroke-width="13" d="M33.615 18.43c11.9-23.736 32.032-24.168 43.365-.142 0 0 26.23 33.3 26.23 113.212H7.114c0-77.696 26.5-113.07 26.5-113.07z"/></g><g transform="translate(7 6.5)"><path fill="#F27E2D" d="M45.098 135.934h46.601v300.258H45.098z"/><path fill="#FFBD8F" d="M12.026 135.934h33.072v300.258H12.026z"/><path fill="#F6E5D3" d="M6.013 135.934h6.013v300.258H6.013z"/><path fill="#4E5F60" d="M6.013 93h84.183v6H6.013zM1.503 205.5h90.196v6H1.503zM1.503 430.5h90.196v6H1.503z"/><path fill="#F6E5D3" d="M26.615 26.43c11.9-23.736 32.032-24.168 43.365-.142 0 0 26.23 33.3 26.23 113.212H.114c0-77.696 26.5-113.07 26.5-113.07z"/><path fill="#FFBD8F" d="M37.936 26.289C47.88 6.373 62.404 7.095 69.634 28.173c0 0 19.17 40.831 23.06 111.327H12.142c0-77.696 25.795-113.211 25.795-113.211z"/><path fill="#F27E2D" d="M45.098 22.475c0-14.04 7.27-16.664 15.236-5.117 0 0 32.985 28.849 35.603 123.739H45.098V22.475z"/><path stroke="#4E5F60" stroke-width="6" d="M93.197 129H3.127c.284-32.323 5.141-59.473 13.063-81.662 2.845-7.967 5.885-14.699 8.915-20.224a78.467 78.467 0 0 1 2.89-4.882c.298-.46.56-.85.783-1.169.126-.18.207-.292.238-.334l.161-.215.12-.24c10.858-21.657 27.779-21.81 37.97-.206l.145.309.211.268c.029.036.106.137.228.305.218.298.474.664.767 1.1a69.475 69.475 0 0 1 2.846 4.661c2.991 5.317 5.995 11.875 8.806 19.728C88.115 68.349 92.924 95.738 93.197 129zM0 129.115L.115 129H0 0v.115z"/><use fill="#4E5F60" xlink:href="#b"/><path stroke="#4E5F60" stroke-width="7.26" d="M67.089 24.87H30.625l9.721-13.02.056-.077c.616-.872 4.3-2.143 7.705-2.143h1.5c3.4 0 7.09 1.274 7.704 2.143L67.09 24.87z"/><path fill="#4E5F60" d="M6.013 131.965v304.599H0V131.965M96.209 131.965v304.599h-6.013V131.965"/></g></g></svg>
